X:55
T: SEGG DOCH MUSEKAETTKEN
N: K0669
O: Europa, Mitteleuropa, Deutschland, Westfalen, Engste
R: Kinder -, Tier - Lied
M: 3/4
L: 1/8
K: Bb
 | d2d2dd | c2c2c2 | B2A2B2 | F4
F2 | d2d2d2 | c2c2c2 | B2A2B2 | F4
d2 | B2A2B2 | c4
d2 | B2A2B2 | c4
f2 | d2c2B2 | c2B2A2 | B4A2 | B4z2

